X:1
T:Title
%%score { 1 | 2 }
L:1/8
M:4/4
K:D
V:1 treble nm="Grand Piano"
V:2 bass 
V:1
 z4 z2[Q:1/4=100] D2 | F3 E D2 D2 | [DFA]3 [A,EG] [A,DF]2 [A,DF]2 | [A,CE]3 [A,DF] [A,EG]2 [CGB]2 | %4
[M:7/8] [GB]3 [FA] [FA]3 |[M:1/4] [FA]2 |[M:4/4] [Fd]2 [Ac]2 [GB]2 [FA]2 | %7
 [A,EA]3 [A,EG] [A,DF]2[K:bass] [F,A,D]2 | [G,B,E]2[K:treble] [B,EG]2 [A,DF]2[K:bass] [G,CE]2 | %9
[M:3/4] [F,D]6 |[M:1/4][K:treble] [DFA]2 |[M:4/4] [DFA]3 [B,DF] [DFA]2 [Fd]2 | d3 B d2 B2 | %13
 [DFA]2 [A,DF]2 [A,E]2 [^G,B,D]2 |[M:3/4] [A,CE]6 |[M:1/4] [CGA]2 | %16
[M:4/4] [DFA]3 [A,DF] [A,FA]2 [Ad]2 |[M:9/8] d3 B d2- d [DGB]2 | %18
[M:4/4] [DFA]2 [A,DF]2[K:bass] [G,CE]3 [F,D] |[M:3/4] [F,D]6 |] %20
V:2
 z4 z2 [D,F,]2 | [D,A,D]3 [D,G,A,] [D,F,A,]2 [D,F,]2 | D,3 D, D,2 D,2 | A,,3 A,, A,,2 A,,2 | %4
[M:7/8] [D,D]3 [D,D] [D,D]3 |[M:1/4] [D,D]2 |[M:4/4] [D,A,]2 [D,D]2 [D,D]2 [D,D]2 | %7
 C,3 C, D,2 D,2 | G,,2 G,,2 A,,2 A,,2 |[M:3/4] D,6 |[M:1/4] D,2 |[M:4/4] D,3 D, D,2 [D,A,]2 | %12
 [G,B,G]3 [G,DG] [G,B,G]2 [G,DG]2 | D,2 D,2 C,2 B,,2 |[M:3/4] A,,6 |[M:1/4] A,,2 | %16
[M:4/4] D,3 D, D,2 [F,=C]2 |[M:9/8][K:treble] [G,B,G]3 [G,DG] [G,B,G]2- [G,B,G][K:bass] G,,2 | %18
[M:4/4] A,,2 A,,2 A,,3 D, |[M:3/4] D,6 |] %20

